X: 1
T: Pretty Peggy
O: Lowe 2
R: reel
Z: 2014 John Chambers <jc:trillian.mit.edu>
S: Concord Slow Scottish Session collection
S: handwritten page by Barbara McOwen labelled "ROAD TA HOULL SET - PAGE TWO", dated Oct 2003
M: C|
L: 1/8
K: D
%%slurgraces
"A"|: A |\
"D"{c}d2fd AFDF | "D"d2fd "A7"e{f}g fe |\
"D"{c}d2fd "Bm"AFDF | "Em"GEFD "A7"CEE :|
"B1"[|] A |\
"D"F{E}D AD "G"BDAD | "D"G{F}E FD "A7"CEEG |\
"D"F{E}D AD "G"BDAD | "A7"G{F}E FD "D"A,DD ||
"B2"[|] G |\
"D"F{E}D dD cDBD | "D"AD F{E}D "A7"CEEG |\
"D"FAdf "Em"ecdB | "A7"AFGE "D"D2D |]


